packages/bezier-icons/icons/chat-push.svg

<svg width="24" height="24" viewBox="0 0 24 24" fill="none" xmlns="http://www.w3.org/2000/svg">
<path fill-rule="evenodd" clip-rule="evenodd" d="M18.5 9C20.433 9 22 7.433 22 5.5C22 3.567 20.433 2 18.5 2C16.567 2 15 3.567 15 5.5C15 7.433 16.567 9 18.5 9ZM19.0603 15.7482C19.8716 14.2294 20.1632 12.5337 19.9143 10.8164C20.5997 10.6346 21.2326 10.3237 21.7854 9.91134L21.7953 9.96018C22.2653 12.2942 21.9303 14.6212 20.8253 16.6892C20.7773 16.7782 20.7063 16.9562 20.7653 17.1322L21.6333 19.7352C21.8133 20.2782 21.6753 20.8662 21.2703 21.2702C20.8663 21.6752 20.2773 21.8112 19.7353 21.6332L17.1303 20.7652C16.9563 20.7062 16.7793 20.7762 16.6903 20.8242C15.2343 21.6022 13.6363 22.0002 12.0003 22.0002C11.5143 22.0002 11.0253 21.9652 10.5363 21.8942C6.26635 21.2782 2.81035 17.8842 2.13235 13.6432C1.61335 10.3972 2.63535 7.21918 4.93635 4.92218C7.23735 2.62518 10.4153 1.61118 13.6643 2.13518C13.807 2.15828 13.9487 2.18445 14.0894 2.21364C13.6769 2.76639 13.3658 3.39929 13.1838 4.08475C12.7866 4.02815 12.3905 4.00018 11.9983 4.00018C9.87734 4.00018 7.87134 4.81818 6.34934 6.33818C4.50834 8.17518 3.69033 10.7232 4.10633 13.3272C4.64833 16.7132 7.40933 19.4222 10.8223 19.9152C12.5333 20.1622 14.2383 19.8662 15.7483 19.0612C16.3903 18.7172 17.1053 18.6482 17.7633 18.8672L19.4193 19.4192L18.8673 17.7642C18.6493 17.1082 18.7173 16.3922 19.0603 15.7482Z" fill="#313234"/>
</svg>

<svg xmlns="http://www.w3.org/2000/svg" width="24" height="24" fill="none" viewBox="0 0 24 24"><path fill="#313234" fill-rule="evenodd" d="M18.5 9a3.5 3.5 0 1 0 0-7 3.5 3.5 0 0 0 0 7m.56 6.748a7.95 7.95 0 0 0 .854-4.932 5.5 5.5 0 0 0 1.871-.905l.01.05c.47 2.333.135 4.66-.97 6.728-.048.09-.119.267-.06.443l.868 2.603c.18.543.042 1.131-.363 1.535a1.5 1.5 0 0 1-1.535.363l-2.605-.868c-.174-.059-.35.011-.44.06A9.9 9.9 0 0 1 12 22q-.73 0-1.464-.106c-4.27-.616-7.726-4.01-8.404-8.25-.519-3.247.503-6.425 2.804-8.722s5.48-3.31 8.728-2.787q.215.035.425.079a5.5 5.5 0 0 0-.905 1.87A8.4 8.4 0 0 0 11.998 4 7.93 7.93 0 0 0 6.35 6.338c-1.84 1.837-2.659 4.385-2.243 6.99.542 3.385 3.303 6.094 6.716 6.587a7.98 7.98 0 0 0 4.926-.854c.642-.344 1.357-.413 2.015-.194l1.656.552-.552-1.655c-.218-.656-.15-1.372.193-2.016" clip-rule="evenodd"/></svg>
